X:214
T: Schferlied (3-17), S. 59
N: P0889
O: Lothringen
S: PINCK, Louis: Verklingende Weisen, Bd3, Metz 1933]
R: yyy]
M: 3/4
L: 1/8
K: F
 | F3Ac2c2 | A2cAG2 |
C2 | A3Bc2f2 | B2c2A4
F3AA2c2 | G2A2F2C2
A3Bc2ff | B2cBA4
A2G2C2 | F2A2c2 |
A2G2G2 | F2A2c2 |
B2d2d2 | c2A2A2 |
B2G2G2 | F6

